img/svg/buttons-icons/stay-at-home-ico.svg

<svg width="16" height="16" viewBox="0 0 16 16" fill="none" xmlns="http://www.w3.org/2000/svg">
<g clip-path="url(#clip0)">
<path d="M15.815 7.94365C15.6931 8.06474 15.5338 8.12527 15.3745 8.12527C15.2138 8.12527 15.0533 8.06374 14.9311 7.94077L14.437 7.44341V10.3752C14.437 10.7204 14.1572 11.0002 13.812 11.0002C13.4669 11.0002 13.1871 10.7204 13.1871 10.3752V6.1852L8.43387 1.40067C8.20063 1.20083 7.8572 1.20011 7.62306 1.39895L2.8115 6.20105C2.81168 6.20708 2.8124 6.21298 2.8124 6.21908V13.5001C2.8124 14.1893 3.37313 14.7501 4.06236 14.7501H4.24985C4.59503 14.7501 4.87483 15.0299 4.87483 15.375C4.87483 15.7202 4.59503 16 4.24985 16H4.06236C2.68391 16 1.56244 14.8786 1.56244 13.5001V7.44763L1.06646 7.94265C0.822219 8.18645 0.426513 8.18608 0.182615 7.94177C-0.0612203 7.69747 -0.0608141 7.30176 0.18349 7.05789C0.18349 7.05789 6.77183 0.482981 6.78071 0.475075C7.49453 -0.160373 8.56902 -0.158092 9.28006 0.480356C9.28888 0.488293 15.8178 7.0598 15.8178 7.0598C16.0612 7.30467 16.0598 7.70037 15.815 7.94365V7.94365ZM13.812 12.8751C13.4669 12.8751 13.1871 13.1549 13.1871 13.5001C13.1871 14.1893 12.6263 14.7501 11.9371 14.7501H11.7496C11.4044 14.7501 11.1246 15.0299 11.1246 15.375C11.1246 15.7202 11.4044 16 11.7496 16H11.9371C13.3156 16 14.437 14.8786 14.437 13.5001C14.437 13.1549 14.1572 12.8751 13.812 12.8751ZM11.1246 9.93771C11.1246 8.90387 10.2835 8.06277 9.24969 8.06277H6.74977C5.71593 8.06277 4.87483 8.90387 4.87483 9.93771V11.8126C4.87483 12.6275 5.39729 13.3225 6.12479 13.5805V15.375C6.12479 15.7202 6.4046 16 6.74977 16C7.09495 16 7.37475 15.7202 7.37475 15.375V13.0626C7.37475 12.7174 7.09495 12.4376 6.74977 12.4376C6.40516 12.4376 6.12479 12.1573 6.12479 11.8126V9.93771C6.12479 9.59309 6.40516 9.31273 6.74977 9.31273H9.24969C9.5943 9.31273 9.87467 9.59309 9.87467 9.93771V11.8126C9.87467 12.1573 9.5943 12.4376 9.24969 12.4376C8.90451 12.4376 8.62471 12.7174 8.62471 13.0626V15.375C8.62471 15.7202 8.90451 16 9.24969 16C9.59486 16 9.87467 15.7202 9.87467 15.375V13.5805C10.6022 13.3226 11.1246 12.6275 11.1246 11.8126V9.93771ZM7.99973 7.46904C6.96589 7.46904 6.12479 6.62794 6.12479 5.5941C6.12479 4.56026 6.96589 3.71916 7.99973 3.71916C9.03357 3.71916 9.87467 4.56026 9.87467 5.5941C9.87467 6.62794 9.03357 7.46904 7.99973 7.46904ZM7.99973 6.21908C8.34434 6.21908 8.62471 5.93871 8.62471 5.5941C8.62471 5.24948 8.34434 4.96912 7.99973 4.96912C7.65512 4.96912 7.37475 5.24948 7.37475 5.5941C7.37475 5.93871 7.65512 6.21908 7.99973 6.21908Z" fill="#4C51CC"/>
</g>
<defs>
<clipPath id="clip0">
<rect width="16" height="16" fill="white"/>
</clipPath>
</defs>
</svg>

<svg width="16" height="16" fill="none" xmlns="http://www.w3.org/2000/svg"><g clip-path="url(#clip0)"><path d="M15.815 7.944a.623.623 0 01-.884-.003l-.494-.498v2.932a.625.625 0 11-1.25 0v-4.19L8.434 1.401a.624.624 0 00-.81-.002L2.81 6.2l.001.018V13.5c0 .69.561 1.25 1.25 1.25h.188a.625.625 0 110 1.25h-.188a2.503 2.503 0 01-2.5-2.5V7.448l-.496.495a.625.625 0 01-.883-.885L6.781.475a1.873 1.873 0 012.5.005l6.537 6.58a.625.625 0 01-.003.884zm-2.003 4.931a.625.625 0 00-.625.625c0 .69-.56 1.25-1.25 1.25h-.187a.625.625 0 100 1.25h.187c1.379 0 2.5-1.121 2.5-2.5a.625.625 0 00-.625-.625zm-2.687-2.937A1.877 1.877 0 009.25 8.063h-2.5a1.877 1.877 0 00-1.875 1.875v1.875c0 .814.522 1.51 1.25 1.768v1.794a.625.625 0 101.25 0v-2.312a.625.625 0 00-.625-.625.626.626 0 01-.625-.625V9.938c0-.345.28-.625.625-.625h2.5c.344 0 .625.28.625.625v1.875c0 .344-.28.625-.625.625a.625.625 0 00-.625.625v2.312a.625.625 0 101.25 0v-1.794a1.878 1.878 0 001.25-1.768V9.938zM8 7.469a1.877 1.877 0 01-1.875-1.875c0-1.034.84-1.875 1.875-1.875 1.034 0 1.875.841 1.875 1.875A1.877 1.877 0 018 7.47zm0-1.25a.626.626 0 10-.002-1.251A.626.626 0 008 6.219z" fill="#4C51CC"/></g><defs><clipPath id="clip0"><path fill="#fff" d="M0 0h16v16H0z"/></clipPath></defs></svg>
